X:1
T:All Hail the Power of Jesus’ Name
T:All Hail the Power of Jesus’ Name
T:Oliver Holden, 1793
T:Edward Perronet, 1779
T:Public Domain Courtesy of the Cyber Hymnal™
C:Oliver Holden, 1793
Z:Public Domain
Z:Courtesy of the Cyber Hymnal™
%%score ( 1 2 ) ( 3 4 )
L:1/8
Q:1/4=115
M:4/4
K:F
V:1 treble 
V:2 treble 
V:3 bass 
V:4 bass 
V:1
 [A,C]2 | [CF]2 [CF]2 [FA]2 [FA]2 | [EG]2 F2 [EG]2 [FA]2 | [EG]2 F2 [FA]2 [EG]2 | F6 [CG]2 | %5
w: 1.~All|hail the power of|Je- sus’ name! Let|an- gels pros- trate|fall; Bring|
w: 2.~Ye|seed of Is- rael’s|chose- n race, Ye|ran- somed from the|fall, Hail|
w: 3.~Let|ev- ery tribe and|ev- ery tongue Be-|fore Him pros- trate|fall And|
w: 4.~O|that, with yon- der|sac- red throng, We|at His feet may|fall, Join|
 [FA]2 [CG]2 [A,F]2 [FA]2 | ([Ac][GB]) ([FA][EG]) [FA]2 [Ec]2 | [Fc]4 [Gc]4 | %8
w: forth the roy- al|di- * a- * dem, And|crown Him|
w: Him Who saves you|by * His * grace, And|crown Him|
w: shout in un- i-|ver- * sal * song The|crown- èd|
w: in the ev- er-|last- * ing * song, And|crown Him|
 [Fd]4 ([Ec]2 [D=B]2) | [Ec]6 [CA]2 | [Cc]2 [CA]2 [CF]2 [CA]2 | ([EG]F) (GA) [EG]2 F2 | %12
w: Lord of *|all. Bring|forth the roy- al|di- * a- * dem, And|
w: Lord of *|all. Hail|Him Who saves you|by * His * grace, And|
w: Lord of *|all, And|shout in un- i-|ver- * sal * song The|
w: Lord of *|all, Join|in the ev- er-|last- * ing * song, And|
 [Fc]4 [DB]4 | (A3 B G2) [EG]2 | F6 |] %15
w: crown Him|Lord * * of|all.|
w: crown Him|Lord * * of|all.|
w: crown- èd|Lord * * of|all.|
w: crown Him|Lord * * of|all,|
V:2
 x2 | x8 | x2 F2 x4 | x2 F2 x4 | F6 x2 | x8 | x8 | x8 | x8 | x8 | x8 | x F E2 x F2 x | x8 | C6 x2 | %14
 F6 |] %15
V:3
 [F,,F,]2 | [F,,A,]2 [F,,A,]2 [F,C]2 [F,C]2 | [C,B,]2 [C,A,]2 [C,B,]2 [F,C]2 | %3
 [C,B,]2 [D,A,]2 [C,C]2 [C,B,]2 | [F,,A,]6 [C,G,]2 | [F,A,]2 [C,G,]2 [A,,F,]2 [F,A,]2 | %6
 ([A,C][G,B,]) ([F,A,][E,G,]) [F,A,]2 [C,G,]2 | [F,A,]4 [E,G,]4 | [D,A,]4 G,4 | [C,G,]6 F,2 | %10
 [F,A,]2 [F,C]2 [A,C]2 [F,C]2 | (B,A,) (B,C) [C,B,]2 [D,A,]2 | [A,,F,]4 [B,,F,]4 | %13
 (F,3 G, E,G,) [C,B,]2 | [F,,A,]6 |] %15
V:4
 x2 | x8 | x8 | x8 | x8 | x8 | x8 | x8 | x4 G,4 | x6 F,2 | x8 | C,2 C,2 x4 | x8 | C,6 x2 | x6 |] %15

